X: 4132
T: The HARE AMONG THE HEATHER
R: Reel.
%R: reel
B: James Kerr "Merry Melodies" v.4 p.16 #132
Z: 2016 John Chambers <jc:trillian.mit.edu>
M: C|
L: 1/8
K: Em
|:\
(3BBB (eB) fBeB | B^cdB ADFA |\
(3BBB (eB) fBeB | d^cdB ADFA ::\
B2(EB) GBEB | B2(EB) ADFA |
B2(EB) GBEB | B^cdB ADFA :|\
E2{EE}B2 BAFD | E2B2ADFD |\
E2B2 BAFA | B^cdB ADFA |]

%%sep 1 1 500
%%sep 1 1 500

